assets/hlg-to-sdr.cube
LUT_3D_SIZE 33
0.0 0.0 0.0
0.005361393739710427 0.0 0.0
0.028247459545907815 0.0 0.0
0.06809553782315039 0.0 0.0
0.10873687662616174 0.0 0.0
0.14898438493457422 0.0 0.0
0.18870463923573355 0.0 0.0
0.22776192208438434 0.0 0.0
0.26602268644412036 0.0 0.0
0.3033596107870269 0.0 0.0
0.3396551536888009 0.0 0.0
0.3748045004299767 0.0 0.0
0.40871781424268544 0.0 0.0
0.44132174410937525 0.0 0.0
0.4725601878950338 0.0 0.0
0.5023943553438316 0.0 0.0
0.530802213761911 0.0 0.0
0.559291050929611 0.0 0.0
0.5891903627058939 0.0 0.0
0.6201669830969809 0.0 0.0
0.6518189247231728 0.0 0.0
0.6836897269114309 0.0 0.0
0.715290287517892 0.0 0.0
0.7461267207364436 0.0 0.0
0.7757312705610816 0.0 0.0
0.8036922161452549 0.0 0.0
0.8296784881769179 0.0 0.0
0.8534555671502149 0.0 0.0
0.874890948426466 0.0 0.0
0.8939494966554778 0.0 0.0
0.9106807469093595 0.0 0.0
0.9252012003036918 0.0 0.0
0.9376747972251663 0.0 0.0
0.0 0.004421971241544468 0.0
0.004471221822368666 0.004202094236155809 0.0
0.02844395303875332 0.0029868074852561757 0.0
0.06862258477257274 6.062660852074534e-05 0.0
0.10924643551061208 0.0 0.0
0.14943439318638885 0.0 0.0
0.18909601854409644 0.0 0.0
0.22810261282438576 0.0 0.0
0.2663206134928924 0.0 0.0
0.3036214211428927 0.0 0.0
0.3398862145622687 0.0 0.0
0.37500913744352027 0.0 0.0
0.40889954965585584 0.0 0.0
0.44148348717241603 0.0 0.0
0.47270437721159103 0.0 0.0
0.5025230630643972 0.0 0.0
0.5309172215540707 0.0 0.0
0.5593932470873306 0.0 0.0
0.5892800327638895 0.0 0.0
0.6202446014142369 0.0 0.0
0.6518851464227987 0.0 0.0
0.6837453699237279 0.0 0.0
0.7153363041238965 0.0 0.0
0.7461641594559035 0.0 0.0
0.775761231051451 0.0 0.0
0.8037158014317547 0.0 0.0
0.829696759402463 0.0 0.0
0.8534695057270674 0.0 0.0
0.8749014290351491 0.0 0.0
0.8939572724420787 0.0 0.0
0.9106864461433579 0.0 0.0
0.9252053322294143 0.0 0.0
0.9376777641227819 0.0 0.0
0.0 0.023305180928283414 0.0
0.0 0.02308776961913075 0.0
0.023564363279470542 0.02214796999603373 0.0
0.0671660902344039 0.019885998626586403 0.0
0.1092060812181174 0.01574888903965222 0.0
0.14989058768314756 0.009327506660905824 0.0
0.18972279480973425 0.00031998273469216985 0.0
0.22877038209845563 0.0 0.0
0.26697490901788107 0.0 0.0
0.304239324137689 0.0 0.0
0.34045892893055524 0.0 0.0
0.3755344532805021 0.0 0.0
0.40937838310769564 0.0 0.0
0.44191821727634184 0.0 0.0
0.473098018298646 0.0 0.0
0.502878842717213 0.0 0.0
0.531238362433225 0.0 0.0
0.5596811252173336 0.0 0.0
0.5895346516269554 0.0 0.0
0.6204665933451854 0.0 0.0
0.6520757676257312 0.0 0.0
0.6839064575730335 0.0 0.0
0.7154701946294733 0.0 0.0
0.7462735717224566 0.0 0.0
0.7758491242119462 0.0 0.0
0.8037852215221646 0.0 0.0
0.8297506919669402 0.0 0.0
0.8535107502452465 0.0 0.0
0.8749325064985577 0.0 0.0
0.8939803708153182 0.0 0.0
0.9107034018620705 0.0 0.0
0.9252176410221314 0.0 0.0
0.9376866120876621 0.0 0.0
0.0 0.05864569930320839 0.0
0.0 0.05846367222503281 0.0
0.008461125171980442 0.05778467343841114 0.0
0.059169051611144614 0.05626627418203473 0.0
0.10588828109411036 0.053452676905955974 0.0
0.14857994480688982 0.04879835225971239 0.0
0.18939003734640217 0.04156262440581258 0.0
0.2289370387369954 0.03102513720177784 0.0
0.2673973750909162 0.017516466121041654 0.0
0.30478652875414525 0.0008466966893145682 0.0
0.3410577996765635 0.0 0.0
0.3761434333995868 0.0 0.0
0.40997376085493725 0.0 0.0
0.44248672013106055 0.0 0.0
0.473632635806636 0.0 0.0
0.5033763869178505 0.0 0.0
0.5316979990613607 0.0 0.0
0.5601013516326722 0.0 0.0
0.5899129498306431 0.0 0.0
0.6208016353243838 0.0 0.0
0.6523674774591107 0.0 0.0
0.6841559854434875 0.0 0.0
0.7156798024693543 0.0 0.0
0.7464464399758348 0.0 0.0
0.7759890997117413 0.0 0.0
0.8038965352892895 0.0 0.0
0.8298376799540067 0.0 0.0
0.853577607809407 0.0 0.0
0.8749830990151568 0.0 0.0
0.8940181108535776 0.0 0.0
0.9107311912967611 0.0 0.0
0.9252378673816413 0.0 0.0
0.9377011837846927 0.0 0.0
0.0 0.09622975320622176 0.0
0.0 0.09609797754617627 0.0
0.0 0.095644794657752 0.0
0.03907906765931232 0.09471248412321051 0.0
0.09692287815914105 0.09307781565684822 0.0
0.14389886992691484 0.09047947110743315 0.0
0.186908253106128 0.08662183287376754 0.0
0.22770127058190104 0.08114899129246392 0.0
0.2668995153410482 0.07357879711805321 0.0
0.30473376311758493 0.06315551221834123 0.0
0.34127328149507463 0.04845878499960398 0.0
0.37651701035630314 0.027204181139373465 0.0
0.4104354059485731 0.0016887000782649323 0.0
0.44299137733102073 0.0 0.0
0.4741512073506387 0.0 0.0
0.5038901902976134 0.0 0.0
0.5321952602382987 0.0 0.0
0.5605734180303592 0.0 0.0
0.5903519214184886 0.0 0.0
0.6212014034713229 0.0 0.0
0.6527239685171214 0.0 0.0
0.684467238835369 0.0 0.0
0.7159458805221247 0.0 0.0
0.7466691852158693 0.0 0.0
0.7761717736214538 0.0 0.0
0.8040433871306346 0.0 0.0
0.8299535011827575 0.0 0.0
0.8536673242993511 0.0 0.0
0.8750514403818211 0.0 0.0
0.8940693774394972 0.0 0.0
0.9107691202685254 0.0 0.0
0.9252655845772685 0.0 0.0
0.9377212197856849 0.0 0.0
0.0 0.13351253855919035 0.0
0.0 0.1334095331958357 0.0
0.0 0.13307061862098926 0.0
0.0019414462916229418 0.1324116992623728 0.0
0.07919894371890204 0.13130805602421716 0.0
0.1343707516881986 0.12960876078648909 0.0
0.18126017104172024 0.12714563526229997 0.0
0.22427480594854943 0.12373362864626844 0.0
0.26484918748725866 0.11916157088047391 0.0
0.3035695368179401 0.11317155692308908 0.0
0.3406907029268919 0.10542084546017058 0.0
0.37631881549679624 0.09540859302129559 0.0
0.4104902544789835 0.08231558226662408 0.0
0.4432102223753478 0.06457401148103192 0.0
0.4744729717640151 0.038217854528522395 0.0
0.5042727213315915 0.002884671382226632 0.0
0.5326094359819087 0.0 0.0
0.5609994137787464 0.0 0.0
0.5907737598849712 0.0 0.0
0.6216053621685808 0.0 0.0
0.6530991527891746 0.0 0.0
0.6848058940464052 0.0 0.0
0.7162434273861435 0.0 0.0
0.7469239945305545 0.0 0.0
0.7763847278471623 0.0 0.0
0.8042173010153112 0.0 0.0
0.8300924863037309 0.0 0.0
0.8537761794867993 0.0 0.0
0.8751351324135592 0.0 0.0
0.8941326496136396 0.0 0.0
0.9108162382680202 0.0 0.0
0.9253002063481822 0.0 0.0
0.9377463626538765 0.0 0.0
0.0 0.1703906231284682 0.0
0.0 0.1703064846538139 0.0
0.0 0.17003679753867687 0.0
0.0 0.16953207435736145 0.0
0.04435243821416714 0.16871661680011205 0.0
0.11796958756644368 0.16749584633859202 0.0
0.17140770479770814 0.1657624747967152 0.0
0.21794406093751167 0.16339982948340778 0.0
0.2606908509570265 0.1602815962189683 0.0
0.3008397218623229 0.15626773604306285 0.0
0.33893237537559157 0.15119614169869114 0.0
0.3752331859011197 0.14486863460394067 0.0
0.40987435939339245 0.1370277670530305 0.0
0.4429227323764885 0.12731614825173881 0.0
0.4744138509358358 0.11519794758543386 0.0
0.5043704069579322 0.09978560727735725 0.0
0.5328124136122263 0.07937318170264926 0.0
0.5612735352872474 0.04743610728199615 0.0
0.5910929053744974 0.0 0.0
0.6219458246814862 0.0 0.0
0.6534406833205694 0.0 0.0
0.6851323940320636 0.0 0.0
0.7165432417350686 0.0 0.0
0.7471898082453674 0.0 0.0
0.7766131192786465 0.0 0.0
0.8044080461773652 0.0 0.0
0.8302477326998308 0.0 0.0
0.8538996091446078 0.0 0.0
0.87523121310456 0.0 0.0
0.8942060378511977 0.0 0.0
0.9108713584695922 0.0 0.0
0.9253409974743505 0.0 0.0
0.937776162447221 0.0 0.0
0.0 0.20675759454875198 0.0
0.0 0.2066869139686629 0.0
0.0 0.2064640910570511 0.0
0.0 0.20605787151385885 0.0
0.0 0.20541944786950306 0.0
0.09045675682258872 0.20448632782096654 0.0
0.15591539141492072 0.20318610531766618 0.0
0.20792580976928893 0.2014392752686383 0.0
0.25388617624764365 0.1991605795449768 0.0
0.2961281401102039 0.19625867418145387 0.0
0.33565780513872007 0.1926340443239048 0.0
0.3729743870004587 0.1881750277325465 0.0
0.4083454707300137 0.18275152735227962 0.0
0.4419228552776879 0.17620543350156023 0.0
0.4737985403487665 0.1683357141427966 0.0
0.5040342334530997 0.1588739596202746 0.0
0.5326776685497543 0.14744121594024492 0.0
0.56128947268318 0.13256240520161316 0.0
0.5912218792424987 0.11115462445494315 0.0
0.6221523870922407 0.0769696259356249 0.0
0.6536931986698415 0.0060868528604831615 0.0
0.6854042364922003 0.0 0.0
0.716813479200889 0.0 0.0
0.747443343330727 0.0 0.0
0.7768403306594163 0.0 0.0
0.8046040382858751 0.0 0.0
0.8304113445771591 0.0 0.0
0.854032344856672 0.0 0.0
0.8753362360205976 0.0 0.0
0.8942873281275502 0.0 0.0
0.9109330816925645 0.0 0.0
0.9253870865705609 0.0 0.0
0.9378100834411227 0.0 0.0
0.0 0.24250715677428836 0.0
0.0 0.2424466421223636 0.0
0.0 0.24225797700199414 0.0
0.0 0.2419203551333507 0.0
0.0 0.24140081719319928 0.0
0.035940510886760785 0.24065639027110375 0.0
0.13217161340591785 0.2396363647101819 0.0
0.19314545702861186 0.2382842710951834 0.0
0.2438173411871048 0.23653924098900503 0.0
0.2890082567159298 0.2343365756864464 0.0
0.33053989115851473 0.23160745290418655 0.0
0.36927650799447304 0.22827774419504693 0.0
0.4056806695136034 0.22426588907888162 0.0
0.4400208400832037 0.21947967378955824 0.0
0.47246440507886395 0.21381157925057004 0.0
0.5031244509478534 0.20713204763505866 0.0
0.5320850649532154 0.19927945362811356 0.0
0.5609449066960308 0.18946369827392476 0.0
0.5910752279542782 0.17626944661847865 0.0
0.6221551951461869 0.1579556477827837 0.0
0.6538008928404544 0.13105681747378262 0.0
0.6855779014437142 0.08609601713502929 0.0
0.7170210351432876 0.0 0.0
0.7476600447133075 0.0 0.0
0.7770485998720333 0.0 0.0
0.8047927407133654 0.0 0.0
0.8305746802609518 0.0 0.0
0.8541685617098426 0.0 0.0
0.8754463560112014 0.0 0.0
0.8943740303881075 0.0 0.0
0.9109998231823663 0.0 0.0
0.9254374805829183 0.0 0.0
0.9378475118350909 0.0 0.0
0.0 0.2775359886239625 0.0
0.0 0.27748347778957394 0.0
0.0 0.27732103612074877 0.0
0.0 0.2770342415156885 0.0
0.0 0.2766000134912579 0.0
0.0 0.27598785035798234 0.0
0.09367773030435969 0.2751612243221551 0.0
0.17181853635058805 0.2740789069514427 0.0
0.22964787907438294 0.27269603812913795 0.0
0.2789776934610245 0.2709648128425065 0.0
0.32322916136440233 0.26883471881321397 0.0
0.3638731433228876 0.2662522982404235 0.0
0.40166514808877757 0.2631604216078219 0.0
0.43703762692183207 0.25949704922119066 0.0
0.47025933111019186 0.25519341675844864 0.0
0.5015105020684305 0.2501715110324847 0.0
0.5309219633717458 0.24434058920602725 0.0
0.5601432413694348 0.2371720923429283 0.0
0.5905714977778915 0.22776917240912603 0.0
0.621886880121529 0.2152214561474552 0.0
0.6537092345908446 0.19804811100251257 0.0
0.6856102668660783 0.17355062364210083 0.0
0.7171326389644411 0.1356702114066107 0.0
0.7478148858256033 0.06098982159374738 0.0
0.7772195773818458 0.0 0.0
0.8049610357309671 0.0 0.0
0.8307285895304354 0.0 0.0
0.8543020245498888 0.0 0.0
0.8755574163888651 0.0 0.0
0.8944634289856529 0.0 0.0
0.9110698410264029 0.0 0.0
0.9254910804273463 0.0 0.0
0.937887764184604 0.0 0.0
0.0 0.31174632790865336 0.0
0.0 0.3117003168620104 0.0
0.0 0.3115587850433248 0.0
0.0 0.3113114131781522 0.0
0.0 0.31094156230786024 0.0
0.0 0.310427017953715 0.0
0.010240431941145694 0.3097408640698188 0.0
0.14031436602452205 0.30885236467068583 0.0
0.21007591957471689 0.3077277436567895 0.0
0.26536610221383394 0.30633077936084274 0.0
0.3133080143645098 0.3046231601630319 0.0
0.3564711216483384 0.3025645731702991 0.0
0.3960761944254758 0.3001125144570551 0.0
0.4327949971185032 0.2972218146690456 0.0
0.46703583342654537 0.2938438676278343 0.0
0.49906772993388065 0.28992553198733645 0.0
0.5290816323915887 0.28540764589882633 0.0
0.558793159282518 0.2799018216513917 0.0
0.5896335351236501 0.2727662006794053 0.0
0.6212832729918067 0.26341107159979743 0.0
0.6533658430692032 0.25095537682695845 0.0
0.6854594742322722 0.23399948323913228 0.0
0.7171156105766155 0.21009532260394442 0.0
0.7478829743623245 0.17418093924361164 0.0
0.7773347787638658 0.11113127121660371 0.0
0.8050955433762151 0.0 0.0
0.8308636271981338 0.0 0.0
0.8544262247944945 0.0 0.0
0.875665033174903 0.0 0.0
0.8945526327764911 0.0 0.0
0.9111412650405598 0.0 0.0
0.925546697202795 0.0 0.0
0.9379300962897033 0.0 0.0
0.0 0.34504822058244344 0.0
0.0 0.3450076142600654 0.0
0.0 0.34488323506618385 0.0
0.0 0.3446675092341203 0.0
0.0 0.3443481552979977 0.0
0.0 0.343908647235158 0.0
0.0 0.34332877480691526 0.0
0.0880379683876785 0.34258523343179864 0.0
0.18276184181565394 0.3416521789370594 0.0
0.24717947983106087 0.34050169335466535 0.0
0.30022703448157545 0.33910412260617095 0.0
0.3467174917908969 0.33742826159760586 0.0
0.3886636155047113 0.3354413740102963 0.0
0.427103150661161 0.3331090412464758 0.0
0.46264296844893776 0.3303948369326589 0.0
0.4956721231329208 0.32725982005975696 0.0
0.5264599142805155 0.3236618312889836 0.0
0.5568066677960454 0.3193008523477862 0.0
0.5881875405563267 0.31368863721970064 0.0
0.6202831411463822 0.3064022112726518 0.0
0.6527206384217275 0.29683724772145487 0.0
0.6850852866352608 0.28409594788692166 0.0
0.7169382823973703 0.26676586135073305 0.0
0.747839950667974 0.24241935882841253 0.0
0.777375916519751 0.20621013359336576 0.0
0.8051828745343019 0.1449581537481029 0.0
0.8309702332948288 0.0 0.0
0.8545345016187008 0.0 0.0
0.8757646727498271 0.0 0.0
0.8946386228394798 0.0 0.0
0.9112121250512726 0.0 0.0
0.9256030684352707 0.0 0.0
0.9379737122748882 0.0 0.0
0.0 0.3773613751618054 0.0
0.0 0.3773253457984428 0.0
0.0 0.37721534369251775 0.0
0.0 0.37702569384262885 0.0
0.0 0.3767471534415205 0.0
0.0 0.3763672087097258 0.0
0.0 0.3758704421926683 0.0
0.0 0.37523893184927465 0.0
0.1424966242208189 0.3744526431680051 0.0
0.22277699950708085 0.3734897798827133 0.0
0.2832015298595913 0.3723270659709091 0.0
0.3341539273191278 0.3709399396672678 0.0
0.3791252324271653 0.36930264762591175 0.0
0.4197458302676751 0.3673882330008654 0.0
0.4569166562724514 0.36516841447705295 0.0
0.491193801465783 0.3626133539631015 0.0
0.5229507923643548 0.35969130875635147 0.0
0.5540961679438042 0.35616330957845443 0.0
0.5861612714623513 0.3516444244908839 0.0
0.6188272136608213 0.3458135663853273 0.0
0.6517254282680212 0.3382238768792893 0.0
0.6844490248752843 0.3282363387708526 0.0
0.7165701242812759 0.31490121159366286 0.0
0.7476621896529667 0.29672522704189386 0.0
0.7773251098833728 0.27114934974402405 0.0
0.8052098129242962 0.23310824168311878 0.0
0.831038874440499 0.16917935797730954 0.0
0.8546201433503069 0.0 0.0
0.8758517201459396 0.0 0.0
0.8947182961534618 0.0 0.0
0.9112803776393882 0.0 0.0
0.9256588738574428 0.0 0.0
0.9380177736093414 0.0 0.0
0.0 0.4086165774545743 0.0
0.0 0.4085844793008125 0.0
0.0 0.40848672852236445 0.0
0.0 0.408318999498546 0.0
0.0 0.40807422285795025 0.0
0.0 0.40774278060436275 0.0
0.0 0.40731275181073345 0.0
0.0 0.40677018613620786 0.0
0.07017654357147243 0.4060993815071943 0.0
0.1890268595367862 0.4052831438948083 0.0
0.2610139045006869 0.404303010516988 0.0
0.31814507270644793 0.40313942212305215 0.0
0.36707327987279664 0.4017718344390122 0.0
0.4104616868210826 0.40017876268787517 0.0
0.4496681552573511 0.3983377559008672 0.0
0.4854893912670016 0.39622529926932604 0.0
0.5184411512441072 0.39381664297899405 0.0
0.5505708620691765 0.39091746920900267 0.0
0.5834816748530749 0.3872171352441136 0.0
0.6168567149200547 0.3824632575503456 0.0
0.650333083530803 0.376310357660755 0.0
0.6835131774617472 0.36827595564847443 0.0
0.7159816244005438 0.35766717295596817 0.0
0.7473268311898109 0.34344887059723245 0.0
0.7771649815708648 0.32398311992057954 0.0
0.8051634272083805 0.29644066874135105 0.0
0.8310601447153024 0.2551621350226162 0.0
0.8546764668649044 0.18487513547044623 0.0
0.8759215361616428 0.0 0.0
0.8947885039901462 0.0 0.0
0.9113439305873556 0.0 0.0
0.9257127502961038 0.0 0.0
0.9380614078402951 0.0 0.0
0.0 0.43875664295912176 0.0
0.0 0.438727958595514 0.0
0.0 0.4386407810493122 0.0
0.0 0.4384917656801656 0.0
0.0 0.4382754312703314 0.0
0.0 0.43798429114169185 0.0
0.0 0.4376090205494389 0.0
0.0 0.43713864661963875 0.0
0.0 0.43656074612208023 0.0
0.1381734473103127 0.435861636824236 0.0
0.23156429277094648 0.4350265497582739 0.0
0.29775027403365506 0.4340397720345648 0.0
0.3519830844045558 0.4328847524104404 0.0
0.3989189144891793 0.4315441642801028 0.0
0.4406695986924355 0.42999992279301263 0.0
0.4783929374984765 0.4282331542437737 0.0
0.5128046911525862 0.42622411661181403 0.0
0.54613259905899 0.4238124236259248 0.0
0.580072097393288 0.4207432402254334 0.0
0.6143115517707184 0.4168135739835388 0.0
0.6484964225708438 0.4117485811935421 0.0
0.6822407698594456 0.4051703554579852 0.0
0.7151439804064598 0.3965481511352258 0.0
0.7468116695447782 0.38511425018661255 0.0
0.7768786562674694 0.3697108731055183 0.0
0.8050311189307382 0.34848301417701655 0.0
0.8310248272660046 0.31817023008702905 0.0
0.8546968744576072 0.2720705171261405 0.0
0.8759695023620465 0.1910022424579801 0.0
0.8948460842065825 0.0 0.0
0.9114006644623093 0.0 0.0
0.9257633053192111 0.0 0.0
0.9381037168430391 0.0 0.0
0.0 0.46773690934456796 0.0
0.0 0.4677112146517644 0.0
0.0 0.4676332515181107 0.0
0.0 0.4675004022404475 0.0
0.0 0.4673083673199208 0.0
0.0 0.4670512552738992 0.0
0.0 0.4667216985810972 0.0
0.0 0.4663109872689695 0.0
0.0 0.4658092108325433 0.0
0.027062693200533273 0.4652053991819782 0.0
0.19057605874643996 0.4644876540255943 0.0
0.27146018620114704 0.46364326330542444 0.0
0.33310585975118345 0.4626587927823618 0.0
0.3846774524179643 0.4615201503949365 0.0
0.42963445425268465 0.46021262040327554 0.0
0.4697044823518885 0.45872086544213236 0.0
0.5058946511043129 0.45702889536012453 0.0
0.5406710585315124 0.45500281717668406 0.0
0.5758490920522223 0.452431009304568 0.0
0.6111282204077016 0.44914756214686974 0.0
0.6461668780109955 0.4449295277597379 0.0
0.6805945567316857 0.43947360969829014 0.0
0.7140286474400178 0.4323602660902187 0.0
0.7460949317030647 0.42299567641979013 0.0
0.7764496776920359 0.4105120802512768 0.0
0.8048006144808251 0.3935829556449017 0.0
0.8309239198750739 0.37004317744238785 0.0
0.8546748889806659 0.3359834101009421 0.0
0.8759910537893247 0.28299842729112573 0.0
0.8948878870180065 0.18423083176850588 0.0
0.9114484509579441 0.0 0.0
0.9258091293788585 0.0 0.0
0.9381437844260684 0.0 0.0
0.0 0.49552529545732665 0.0
0.0 0.4955022360743823 0.0
0.0 0.495432363383511 0.0
0.0 0.4953136071957654 0.0
0.0 0.4951425610436114 0.0
0.0 0.4949145447466912 0.0
0.0 0.49462368592299716 0.0
0.0 0.4942630150813641 0.0
0.0 0.4938245682989833 0.0
0.0 0.4932994913426106 0.0
0.12583219486948238 0.4926781393816034 0.0
0.23655325040757075 0.4919501670677556 0.0
0.30930314775629403 0.49110460459968536 0.0
0.36712744974348216 0.49012991632271746 0.0
0.41618902600460855 0.4890140393253806 0.0
0.45917474990805546 0.48774440028993743 0.0
0.4975346568688371 0.48630790947269936 0.0
0.5340579835567649 0.48459177837062556 0.0
0.5707187234469137 0.48241858943420807 0.0
0.6072374254974283 0.47965113423080913 0.0
0.6432929756872359 0.47610602502870075 0.0
0.6785360756652512 0.4715356664525003 0.0
0.7126067772154986 0.4656012258999112 0.0
0.7451549697857287 0.4578303887516741 0.0
0.7758618603379377 0.44754786268502306 0.0
0.8044599100811469 0.4337535473626476 0.0
0.8307486288252077 0.41489084079347044 0.0
0.8546041689384846 0.38835456639619453 0.0
0.8759816998003176 0.3492604269279805 0.0
0.8949107941728854 0.2863801103587236 0.0
0.9114851677945751 0.15590336150667433 0.0
0.9258488062703211 0.0 0.0
0.9381806831667451 0.0 0.0
0.0 0.5235990092275434 0.0
0.0 0.5235784108390428 0.0
0.0 0.5235160689052824 0.0
0.0 0.5234103523662093 0.0
0.0 0.5232585730258634 0.0
0.0 0.5230570289365268 0.0
0.0 0.5228010613720958 0.0
0.0 0.5224851220200096 0.0
0.0 0.5221028465600863 0.0
0.0 0.5216471306207217 0.0
0.0 0.5211102041884688 0.0
0.18346610464159402 0.5204837008507606 0.0
0.2766506835620673 0.5197587187116908 0.0
0.34397029504469995 0.5189258703689912 0.0
0.39878054555752573 0.5179753199105952 0.0
0.4456763015854777 0.5168968054243216 0.0
0.48687124566810197 0.5156796459697507 0.0
0.5256392693809755 0.5142290091500619 0.0
0.5641837058266773 0.5123964222743744 0.0
0.6022656034027938 0.5100685458321796 0.0
0.6395984334518602 0.5070945318759477 0.0
0.6758648517670447 0.503271903352881 0.0
0.7107361506816765 0.498325842307965 0.0
0.7438935199333269 0.49187770626576705 0.0
0.7750493742003316 0.4833950128034961 0.0
0.8039664930536281 0.47210757364016737 0.0
0.8304727121321711 0.45685710499913296 0.0
0.8544694457062845 0.43580310910669423 0.0
0.8759332862979455 0.40577455406622925 0.0
0.8949110515270364 0.36055562645381706 0.0
0.9115096232958864 0.28460067352004625 0.0
0.9258825154714209 0.08981129707681215 0.0
0.9382152289836502 0.0 0.0
0.0 0.5533033081533069 0.0
0.0 0.5532851179564275 0.0
0.0 0.5532301242427746 0.0
0.0 0.5531370638517312 0.0
0.0 0.5530038518657792 0.0
0.0 0.5528276109569139 0.0
0.0 0.5526047102084496 0.0
0.0 0.5523308113577716 0.0
0.0 0.5520009200884554 0.0
0.0 0.5516094398409122 0.0
0.0 0.5511502256040055 0.0
0.06480648599230251 0.5506166352766735 0.0
0.2256725763837536 0.5500015764192281 0.0
0.31050406271693265 0.5492975465138921 0.0
0.3744482046026133 0.5484966651874789 0.0
0.42713520047481074 0.5475906971826577 0.0
0.47236538914472287 0.5465710651699203 0.0
0.5142489552365688 0.5453589775509567 0.0
0.5553629770269722 0.5438316881103501 0.0
0.5955518210759017 0.5418967569995314 0.0
0.6345930389231513 0.5394315906836104 0.0
0.6722226750019789 0.5362724259804544 0.0
0.7081597337757731 0.532198472728888 0.0
0.7421300478602365 0.5269083832297308 0.0
0.7738885070980601 0.5199839852386131 0.0
0.8032379616832667 0.5108317306324432 0.0
0.830043066106969 0.49858266527584877 0.0
0.8542378195219921 0.48190905987836746 0.0
0.8758264132528701 0.45865591097984243 0.0
0.8948779615059682 0.4249985843580837 0.0
0.9115164999165597 0.37308810586453295 0.0
0.9259080990120228 0.2813986259024119 0.0
0.9382469966636976 0.0 0.0
0.0 0.5843597686738988 0.0
0.0 0.5843439028670283 0.0
0.0 0.5842959837021857 0.0
0.0 0.5842150500166248 0.0
0.0 0.5840995132392417 0.0
0.0 0.5839471767556805 0.0
0.0 0.5837552616973406 0.0
0.0 0.5835204379390316 0.0
0.0 0.5832388588827289 0.0
0.0 0.5829061984822023 0.0
0.0 0.5825176889250929 0.0
0.0 0.5820681574280526 0.0
0.12632145043984827 0.581552060704022 0.0
0.2583828913393949 0.5809635158121227 0.0
0.33900486066268304 0.5802963262818164 0.0
0.40096727759079526 0.5795440025960661 0.0
0.45224642215392635 0.5786997763069515 0.0
0.4986182163105997 0.5776989859824544 0.0
0.5433357819141401 0.5764414315183393 0.0
0.5864240798695893 0.574852735514849 0.0
0.6277861232766414 0.5728345662624589 0.0
0.6672526017148438 0.5702560969017576 0.0
0.7046197014592995 0.5669419029868182 0.0
0.7396801768047772 0.562654370235266 0.0
0.7722490552242003 0.5570672793265061 0.0
0.8021837339284208 0.549724524824476 0.0
0.8293977506874146 0.5399723984395738 0.0
0.8538677530844905 0.5268417646979286 0.0
0.8756338255278171 0.5088273854113682 0.0
0.8947940687608015 0.4834325577013318 0.0
0.9114949180231082 0.4460906079066063 0.0
0.9259189826690317 0.3869792584836309 0.0
0.9382721564139334 0.27630410695296487 0.0
0.0 0.6164148675073665 0.0
0.0 0.616401212099528 0.0
0.0 0.6163600055761334 0.0
0.0 0.6162905296421992 0.0
0.0 0.6161915957090095 0.0
0.0 0.6160615573611715 0.0
0.0 0.6158983270594929 0.0
0.0 0.6156993963816024 0.0
0.0 0.6154618589728631 0.0
0.0 0.6151824352943746 0.0
0.0 0.6148574982139497 0.0
0.0 0.6144830984876086 0.0
0.0 0.6140549892182673 0.0
0.15973644281629223 0.6135686484476242 0.0
0.2832653197834003 0.6130192991282133 0.0
0.3623582255829513 0.6124019258262533 0.0
0.42349500682341995 0.6117112876135821 0.0
0.476706155667237 0.6108949907254427 0.0
0.5266840688973049 0.6098723043449684 0.0
0.5738815524783529 0.6085842353479601 0.0
0.6184660027726214 0.6069530151432104 0.0
0.6604476989862024 0.6048755345319465 0.0
0.6997559133770714 0.6022141599118698 0.0
0.7362895834032422 0.598783613023495 0.0
0.7699529934798457 0.5943317065776448 0.0
0.8006805886943825 0.5885100703894118 0.0
0.8284526273724515 0.580827765571604 0.0
0.8533026964069897 0.5705739858020384 0.0
0.8753181966230228 0.5566811194833232 0.0
0.8946352334891149 0.5374628201912778 0.0
0.9114296203890149 0.5100593436548461 0.0
0.9259057706129376 0.46907754099439986 0.0
0.9382850926620057 0.4023494639147091 0.0
0.0 0.6490480195562457 0.0
0.0 0.6490364324004136 0.0
0.0 0.649001494726713 0.0
