assets/hlg-to-sdr.cube
LUT_3D_SIZE 5
0.0 0.0 0.0
0.26602268644412036 0.0 0.0
0.530802213761911 0.0 0.0
0.7757312705610816 0.0 0.0
0.9376747972251663 0.0 0.0
0.0 0.24250715677428836 0.0
0.2438173411871048 0.23653924098900503 0.0
0.5320850649532154 0.19927945362811356 0.0
0.7770485998720333 0.0 0.0
0.9378475118350909 0.0 0.0
0.0 0.49552529545732665 0.0
0.0 0.4938245682989833 0.0
0.4975346568688371 0.48630790947269936 0.0
0.7758618603379377 0.44754786268502306 0.0
0.9381806831667451 0.0 0.0
0.0 0.74558433595248 0.0
0.0 0.7451506463916445 0.0
0.0 0.7436086386957413 0.0
0.74737130699037 0.7372764643650388 0.0
0.9379980770615367 0.685182972898578 0.0
0.0 0.9259616011603407 0.0
0.0 0.9259166614795362 0.0
0.0 0.9257746185848029 0.0
0.0 0.9253022380486067 0.0
0.9266841538510826 0.9225537198569798 0.0
0.0 0.0 0.1884884416912815
0.2655030845819297 0.0 0.2221521255570183
0.530794571150972 0.0 0.24472236593611485
0.7757411617017841 0.0 0.2518463809008015
0.9376761779338955 0.0 0.14815082930995369
0.0 0.24362028535119312 0.2320428544605742
0.23701030155875374 0.23699869286526343 0.2369870834192117
0.5310967433026702 0.19862217122987308 0.24403525577546126
0.7769548074687364 0.0 0.24180937897121513
0.9378458282536987 0.0 0.1092477877733013
0.0 0.4959771327063763 0.22227218212369287
0.0 0.49419800144093246 0.22142822629491848
0.49499951890162835 0.4865001186130164 0.21755522808067151
0.7755692467742403 0.44739630821779636 0.19759756803470835
0.938171247519242 0.0 0.0
0.0 0.745712676757713 0.0
0.0 0.745271753118873 0.0
0.0 0.7437100526647825 0.0
0.7466687812849165 0.7373324851740644 0.0
0.9379728500643292 0.6851074388039518 0.0
0.0 0.9259754487330022 0.0
0.0 0.925930302584823 0.0
0.0 0.9257876573083809 0.0
0.0 0.9253136556441601 0.0
0.9266093090046669 0.9225599162032851 0.0
0.0 0.0 0.4083527422533683
0.2580236109805555 0.0 0.4328394703772842
0.5300408948977909 0.0 0.4636557746675875
0.7757060232985686 0.0 0.49366187029815506
0.9376785682094733 0.0 0.5103224606053077
0.0 0.24609681635208647 0.4505343501801146
0.21312759154204752 0.23787417571200054 0.45865056203004445
0.5277339531667352 0.196422332984858 0.474573731601797
0.7766242609479328 0.0 0.4956016059197372
0.9378391701525788 0.0 0.5070255725501709
0.0 0.4972327704779865 0.4792936019305027
0.0 0.4952339702045186 0.48155018766915475
0.48703930240842336 0.4870212860496074 0.48700326812362843
0.7746593611907701 0.4469140260057875 0.49605144852062594
0.9381416437318965 0.0 0.49572260927914175
0.0 0.7460882306435305 0.4752641924574335
0.0 0.7456261289911066 0.47528770039875695
0.0 0.7440066689533585 0.4751514695585491
0.7445225583245857 0.737495343469034 0.4732654223158716
0.9378962512282188 0.6848781293174869 0.45012385184722786
0.0 0.9260167095233325 0.0
0.0 0.9259709483212584 0.0
0.0 0.9258265083038786 0.0
0.0 0.9253476745242935 0.0
0.9263834538955562 0.9225783503255597 0.0
0.0 0.0 0.6594536856597645
0.2034473460837996 0.0 0.6699884379372604
0.5230749874789419 0.0 0.6896870294239192
0.7751076134081164 0.0 0.7160748590900344
0.9376710586179111 0.0 0.7474621864335017
0.0 0.24867040352440178 0.6811680375537221
0.08451383989898606 0.23737057867685218 0.6868976842093647
0.514866883938184 0.18827905116282287 0.6995883945245426
0.775275309123735 0.0 0.7200428706622044
0.9378065187902414 0.0 0.7478380874089953
0.0 0.5001543357032853 0.7082772165437468
0.0 0.497621654298905 0.710557212734015
0.46057198886831646 0.4881125390924836 0.7164206494326907
0.7717467120685718 0.44528861751722953 0.7282698799935433
0.9380447982683334 0.0 0.7484844385143948
0.0 0.7471033805909164 0.7308314500645903
0.0 0.7465838267681603 0.7315146865913515
0.0 0.7448068510010912 0.7334154002451546
0.7379423588649218 0.7379259697970675 0.7379095786030775
0.9376658774706569 0.6841889175616471 0.7472792852688537
0.0 0.9261342540669608 0.7196236367981078
0.0 0.9260867415788475 0.719561689749313
0.0 0.925937188946962 0.7193596834365951
0.0 0.925444572656824 0.718640784041946
0.9257156932310101 0.9226306163570999 0.7139681055844589
0.0 0.0 0.8863701656914854
0.0 0.0 0.8879861943683037
0.44369463819534416 0.0 0.8920243674966383
0.7669287050382565 0.0 0.8998436625574755
0.9374424556714666 0.0 0.913482071766274
0.0 0.23049050109225394 0.890153248328659
0.0 0.21156128378556338 0.8914294592928161
0.4139340344992914 0.12904900099463765 0.8947170454638246
0.7648997728615343 0.0 0.9014350060117974
0.9374901817308149 0.0 0.9139812712056189
0.0 0.504886800189342 0.8977381504414144
0.0 0.5009950071509134 0.8985021707746845
0.2550030576622171 0.4878671564066796 0.9005714435399846
0.7559192067719882 0.4357555755838548 0.9052364695649925
0.9374991986785095 0.0 0.915314637301041
0.0 0.7502497877163561 0.9083080501574832
0.0 0.7495442957579709 0.9086366285796721
0.0 0.7472489313972474 0.9095708952717102
0.705094484111629 0.7390990460210712 0.9119216361426541
0.9366171714263146 0.6810637562936422 0.918175217078847
0.0 0.9265760528005486 0.9198538913657361
0.0 0.9265219544618025 0.9199314980681728
0.0 0.9263531441999753 0.920159359134975
0.0 0.9258083775805653 0.9207819599136308
0.9228298490454421 0.9228230592065223 0.9228162681698447
